X: 36118
T: Schottishe Kerlou
R: reel
M: 4/4
K: Amajor
a4 g4|Bc d2 cB A2|d2 dc de B2-|BcBA BcAG|
F3 F FEFG|AGAB c2 Bc|dc BA B3 A|1 A3A Aceg:|2 A3 A Acde||
f3 f fedc|BA AB c2 Bc|dcBA e2 c2|B3 B BcAG|
F3 F FEFG|AGAB c2 Bc|dc BA B3A|A3 A Acde|
f3 f fgag|f2 e2 c2 Bc|dcBc e2 c2|B3 B BcAG|
F3 F FEFG|AGAB c3 c|dc BA B3A|1 A3A Aceg:|2 "To finish"A8||

